X:1
T:Title
%%score { ( 1 3 4 ) | 2 }
L:1/8
Q:1/4=100
M:4/4
K:D
V:1 treble nm="Grand Piano"
V:3 treble 
V:4 treble 
V:2 bass 
V:1
 D2 F>G A2 B>c | d2 F>B A4 | [GB]2 [CE]>[DF] [EG]4 | [FA]2 D>E F4 | D2 F>G A2 B>c | d2 F>B A4 | %6
w: Mrs.~Carrie~E.~Adams * * * * *||||||
 c2 A>c [Ae]4 | [D^GB]2 [DGB]>[EGc] [CA]4 | [CGB]2 [CE]>[DF] [EG][FA][GB][Ac] | %9
w: |||
 [Fd]2 [DF]>[GB] [FA]4 | [CGB]2 [CE]>[DF] [EG][FA][GB][Gc] | ed [=Fc]>[FB] [A,^FA]4 | %12
w: |||
 D2 F>G A2 B>c | d2 [DAc]>[DAd] [DGB]4 | [DFA]4 [Ge]3 [Fd] |[M:3/4] [Fd]6 |[M:1/4] A2 | %17
w: |||||
[M:4/4] A4 d4 | A6 z2 | B2 E>F G2 F>G | [FA]2 D>E F2 [FA]2 | d4 e4 | B6 z2 | d2 F>G A2 [GB]>[Gc] | %24
w: |||||||
[M:3/4] [Fd]6 |] %25
w: |
V:2
 D,2 F,>G, A,2 B,>C | D2 F,>B, A,4 | [A,,A,]2 [A,,A,]>[A,,A,] [A,,A,]4 | %3
 [D,A,]2 [D,F,]>[D,G,D] [D,A,D]4 | D,2 F,>G, A,2 B,>C | D2 F,>B, A,4 | %6
 [E,A,E]2 [E,A,C]>[E,A,E] [E,C]4 | E,2 E,>E, A,4 | %8
 A,,2 [A,,A,]>[A,,A,] [A,,A,][A,,A,][A,,A,][A,,A,] | [D,A,]2 [D,A,]>[D,D] [D,D]4 | %10
 A,,2 [A,,A,]>[A,,A,] [A,,A,][A,,A,][A,,A,][A,,A,] | [D,A,]2 [D,^G,]>[D,G,] D,4 | %12
 D,2 F,>G, A,2 B,>C | D2 F,>F, G,4 | A,4 [A,C]3 [D,D] |[M:3/4] [D,D]6 |[M:1/4] C2 | %17
[M:4/4] D,2 D,>D, [D,A,]2 [D,A,]2 | [D,A,]2 [C,A,]>[C,A,] [D,A,]2 [D,D]>[D,D] | %19
 [A,CG]2 [A,C]>[A,D] [A,E]2 [A,D]>[K:bass][A,CE] | [D,D]2 [D,F,]>[D,G,C] [D,A,D]2 [D,D]2 | %21
 [D,A,]2 [D,A,]>[D,A,] [F,D]2 [F,D]2 | [G,DG]2 [G,D]>[G,D] [G,D]2 [^G,C=F][G,B,F] | %23
 [A,F]2[K:bass] F,>G, A,2 [A,,A,]>[A,,A,] |[M:3/4] [D,A,]6 |] %25
V:3
 x8 | x8 | x8 | x8 | x8 | x8 | x8 | x8 | x8 | x8 | x8 | F2 z2 z4 | x8 | x8 | x8 |[M:3/4] x6 | %16
[M:1/4] x2 |[M:4/4] [A,F]2 [A,F]>[A,F] F2 FF | F2 G>G F2 [FA]>[FA] | x8 | x8 | z4 z2 A2 | %22
 z2 G>G G2 cd | x8 |[M:3/4] x6 |] %25
V:4
 x8 | x8 | x8 | x8 | x8 | x8 | x8 | x8 | x8 | x8 | x8 | x8 | x8 | x8 | x8 |[M:3/4] x6 |[M:1/4] x2 | %17
[M:4/4] x8 | x8 | x8 | x8 | F2 F>F A2 z d | x8 | x8 |[M:3/4] x6 |] %25

